X:5488
T:Francis the Miller
R:reel
C:Dougie MacDonald
O:20th century Cape Breton
D:The Cape Breton Times
N:Bookings,Mechanicals etc.
N:..... Dougie MacDonald <dougie@cranfordpub.com>
N:More tunes and information <http://www.cranfordpub.com/dougie>
Z:This abc transcription is for personal use only,
Z:provided this notice remains attached.
Z:Used by permission of the composer
Z:Paul Stewart Cranford 
Q:333
L:1/8
M:C|
K:A
AB|cF F/F/F FEDF|EDCE Acea|fd d/d/d (3(cde) Ac|dBcA GBEG|!
AF F/F/F FE D2|EDCE Acea|fd d/d/d ecag|fdec A/A/A:|!
|:ce|f2 fg fe d2|fedf eAgA|aAgA feca|1ecBA B2ce|!
f/f/f ag fe d2|fedf efge|agfe cbaf|ecdB A/A/A:|!
[2ecBA BABd|cF F/F/F FE DF|EDCE Acea|fd d/d/d ecag|fdec A/A/A|]!
